shader_type canvas_item;

uniform sampler2D screen_texture : hint_screen_texture, filter_linear_mipmap;
uniform float blur_amount : hint_range(0.0, 5.0) = 2.0;
uniform vec4 tint_color : source_color = vec4(0.0, 0.0, 0.0, 0.5); // Dark tint

void fragment() {
    vec4 color = textureLod(screen_texture, SCREEN_UV, blur_amount);
    COLOR = mix(color, tint_color, tint_color.a);
}
